X:3
T:Speed the Plough
C:trad. arr. Robin Garside
Z:ABC version by Jack Campin
M:C|
L:1/8
Q:1/2=96
K:G
   "G"GABc dedB|dedB    dedB|"Am"c2ec "G"B2dB|"Am"c2A2 "D7"A2
BA|"G"GABc dedB|dedB    dedB|"Am"c2ec "G"B2dB|"D7"A2A2 "G" G4:|
   "C"g2gg g2ef|g2fe "G"dBGB|"Am"c2ec "G"B2dB|"Am"c2A2 "D7"A2
Bd|"C"g2gg g2ef|g2fe "G"dBGB|"Am"c2ec "G"B2dB|"D7"A2A2 "G" G4:|

